X:357
T: Yue er wan wan zhao jiu zhou
N: C1304
O: China,nan Jiangsu
S: MM, ZHONGGUO MINGE XUAN S.154]
N: Pinyin-Text der ersten Strophe vorhanden!
R: Xiaodiao, Shidiao, Mengjiangn diao. Lichou]
M: 2/4
L: 1/16
K: Bb
BGB4c2 | d3cd4 | f2dcB2GB | c8 |
c2c2d4 | cdcBG4 | B2d2cBG2 | F8 |
f2dcB4 | cdBcd4 | f2dcB3d | cBG6 |
c2c2d4 | cdcBG4 | G2B2BcdB | c4-cdBG | F8

@@@ Tune index: 6358
